X:157
T:It winna do, or Mr Watt’s Reel TS.157
T:Mr Watt’s Reel TS.157
M:C|
L:1/8
Q:1/2=75
S:Thomas Sands’ MS,1810,Lincolnshire
R:reel
O:England;Lincolnshire
Z:vmp.Ruairidh Greig, 2011
K:Dm
A,|D/E/F E>D (d/e/)f ed|cAGF ECCE|(D/E/)F E>D (d/e/)f e>d|c>AG>E ADD:|
e|f>ede fagf|egcg ecge|fede fagf|fdA^c dDDe|
f>ede fagf|egcg ecge|f<ae<g decd|AcEG FDD|]

